src/22x22/places/folder-gruvbox-material-purple-script.svg

<?xml version="1.0" encoding="UTF-8"?>
<svg width="22" height="22" version="1" xmlns="http://www.w3.org/2000/svg">
 <rect x="1" y="8.5" width="20" height="12" rx="1" ry="1" opacity=".2"/>
 <path d="m1 16c0 0.554 0.446 1 1 1h18c0.554 0 1-0.446 1-1v-11c0-0.554-0.446-1-1-1h-9c-1.5 0-2-2-3.5-2h-5.5c-0.554 0-1 0.446-1 1" fill="#945e80"/>
 <rect x="1" y="7.5" width="20" height="12" rx="1" ry="1" opacity=".2"/>
 <rect x="3" y="6" width="16" height="8" rx="1" ry="1" fill="#E5DFC8"/>
 <rect x="1" y="8" width="20" height="12" rx="1" ry="1" fill="#d3869b"/>
 <path d="m2 2c-0.554 0-1 0.446-1 1v0.5c0-0.554 0.446-1 1-1h5.5c1.5 0 2 2 3.5 2h9c0.554 0 1 0.446 1 1v-0.5c0-0.554-0.446-1-1-1h-9c-1.5 0-2-2-3.5-2z" fill="#E5DFC8" opacity=".1"/>
 <g fill="#4A413F">
  <path d="m12 16h4v1h-4z"/>
  <rect x="8" y="10" width="1" height="7"/>
  <path d="m7.5 11c-0.83 0-1.5 0.67-1.5 1.5s0.67 1.5 1.5 1.5h2c0.28 0 0.5 0.22 0.5 0.5s-0.22 0.51-0.5 0.5h-3.41c0.21 0.58 0.76 1 1.41 1h2c0.83 0 1.5-0.67 1.5-1.5s-0.67-1.5-1.5-1.5h-2c-0.28 0-0.5-0.22-0.5-0.5s0.22-0.5 0.5-0.5h3.41c-0.21-0.58-0.76-1-1.41-1h-0.5z"/>
 </g>
</svg>

<svg xmlns="http://www.w3.org/2000/svg" width="22" height="22" version="1">
 <rect style="opacity:0.2" width="20" height="12" x="1" y="8.5" rx="1" ry="1"/>
 <path style="fill:#945e80" d="M 1,16 C 1,16.554 1.446,17 2,17 H 20 C 20.554,17 21,16.554 21,16 V 5 C 21,4.446 20.554,4 20,4 H 11 C 9.5,4 9,2 7.5,2 H 2 C 1.446,2 1,2.446 1,3"/>
 <rect style="opacity:0.2" width="20" height="12" x="1" y="7.5" rx="1" ry="1"/>
 <rect style="fill:#E5DFC8" width="16" height="8" x="3" y="6" rx="1" ry="1"/>
 <rect style="fill:#d3869b" width="20" height="12" x="1" y="8" rx="1" ry="1"/>
 <path style="opacity:0.1;fill:#E5DFC8" d="M 2,2 C 1.446,2 1,2.446 1,3 V 3.5 C 1,2.946 1.446,2.5 2,2.5 H 7.5 C 9,2.5 9.5,4.5 11,4.5 H 20 C 20.554,4.5 21,4.946 21,5.5 V 5 C 21,4.446 20.554,4 20,4 H 11 C 9.5,4 9,2 7.5,2 Z"/>
 <g style="fill:#4A413F">
  <path d="M 12,16 H 16 V 17 H 12 Z"/>
  <rect width="1" height="7" x="8" y="10"/>
  <path d="M 7.5,11 C 6.67,11 6,11.67 6,12.5 6,13.33 6.67,14 7.5,14 H 9 9.5 C 9.78,14 10,14.22 10,14.5 10,14.78 9.78,15.01 9.5,15 H 9 7.5 6.09 C 6.3,15.58 6.85,16 7.5,16 H 9 9.5 C 10.33,16 11,15.33 11,14.5 11,13.67 10.33,13 9.5,13 H 9 7.5 C 7.22,13 7,12.78 7,12.5 7,12.22 7.22,12 7.5,12 H 9 9.5 10.91 C 10.7,11.42 10.15,11 9.5,11 H 9 Z"/>
 </g>
</svg>
